X: 05058
T: MELISSA'S JIG
C: Bob McQuillen 27 Oct 80
B: Bob's Note Book 5 #58
%R: jig
Z: 2021 John Chambers <jc:trillian.mit.edu>
M: 6/8
L: 1/8
K: D
a2g \
| faf ecA | ddd d2e | fga agf | e3 a2g |\
| faf efe | d2f a2A | Bcd ecA | d3 :|
|: f2g \
| afd dcd | efe cBA | faf def | e3 f2g |\
| afd dcd | Bed cBA | Bgf edc | d3 :|
%%begintext align
%% Here's
%% a tune Melissa Emmons can
%% try on her fiddle - I sure hope
%% you like it, Melissa!
%%endtext

%%sep 1 1 500

%%sep 1 1 500

